packages/ffe-icons/icons/filled/md/4g_mobiledata_badge.svg

<svg xmlns="http://www.w3.org/2000/svg" height="24" viewBox="0 -960 960 960" width="24"><path d="M132.309-140.001q-30.308 0-51.308-21t-21-51.308v-535.382q0-30.308 21-51.308t51.308-21h695.382q30.308 0 51.308 21t21 51.308v535.382q0 30.308-21 51.308t-51.308 21H132.309Zm458.46-150h115.384q29.826 0 51.067-21.24 21.24-21.24 21.24-51.067v-111.538q0-15.365-10.394-25.759t-25.76-10.394h-46.152q-12.75 0-21.375 8.628-8.625 8.629-8.625 21.384 0 12.756 8.625 21.371 8.625 8.615 21.375 8.615h22.307v87.693q0 5.385-3.461 8.847-3.462 3.462-8.847 3.462H590.769q-5.385 0-8.847-3.462-3.462-3.462-3.462-8.847v-235.384q0-5.385 3.462-8.847 3.462-3.462 8.847-3.462H778.46q-3.077-25.692-22.923-42.845-19.846-17.153-46.307-17.153H590.769q-29.827 0-51.067 21.24-21.241 21.24-21.241 51.067v235.384q0 29.827 21.241 51.067 21.24 21.24 51.067 21.24Zm-260.768-120V-320q0 12.75 8.628 21.374 8.629 8.625 21.384 8.625 12.756 0 21.371-8.625 8.615-8.624 8.615-21.374v-90.001H440q12.75 0 21.374-8.628 8.625-8.629 8.625-21.384 0-12.756-8.625-21.371-8.624-8.615-21.374-8.615h-50.001V-640q0-12.75-8.628-21.375-8.629-8.624-21.384-8.624-12.756 0-21.371 8.624-8.615 8.625-8.615 21.375v170.001H229.999V-640q0-12.75-8.628-21.375-8.629-8.624-21.384-8.624-12.756 0-21.371 8.624-8.615 8.625-8.615 21.375v193.846q0 15.365 10.394 25.759t25.759 10.394h123.847Z"/></svg>

<svg xmlns="http://www.w3.org/2000/svg" height="24" viewBox="0 -960 960 960" width="24"><path d="M132.31-140Q102-140 81-161q-21-21-21-51.31v-535.38Q60-778 81-799q21-21 51.31-21h695.38Q858-820 879-799q21 21 21 51.31v535.38Q900-182 879-161q-21 21-51.31 21H132.31Zm458.46-150h115.38q29.83 0 51.07-21.24 21.24-21.24 21.24-51.07v-111.54q0-15.36-10.39-25.76Q757.67-510 742.31-510h-46.16q-12.75 0-21.37 8.63-8.63 8.63-8.63 21.38 0 12.76 8.63 21.37 8.62 8.62 21.37 8.62h22.31v87.69q0 5.39-3.46 8.85t-8.85 3.46H590.77q-5.39 0-8.85-3.46t-3.46-8.85v-235.38q0-5.39 3.46-8.85t8.85-3.46h187.69q-3.08-25.69-22.92-42.85Q735.69-670 709.23-670H590.77q-29.83 0-51.07 21.24-21.24 21.24-21.24 51.07v235.38q0 29.83 21.24 51.07Q560.94-290 590.77-290ZM330-410v90q0 12.75 8.63 21.37 8.63 8.63 21.38 8.63 12.76 0 21.37-8.63Q390-307.25 390-320v-90h50q12.75 0 21.37-8.63 8.63-8.63 8.63-21.38 0-12.76-8.63-21.37Q452.75-470 440-470h-50v-170q0-12.75-8.63-21.37-8.63-8.63-21.38-8.63-12.76 0-21.37 8.63Q330-652.75 330-640v170H230v-170q0-12.75-8.63-21.37-8.63-8.63-21.38-8.63-12.76 0-21.37 8.63Q170-652.75 170-640v193.85q0 15.36 10.39 25.76Q190.79-410 206.15-410H330Z"/></svg>
